contributed-vectors/tmb_touch.svg

<svg width="192" height="192" viewBox="0 0 192 192" fill="none" xmlns="http://www.w3.org/2000/svg">
<g clip-path="url(#clip0)">
<path d="M172.5 29.1V162.9C172.5 168.2 168.2 172.5 162.9 172.5H29.1C23.8 172.5 19.5 168.2 19.5 162.9V29.1C19.5 23.8 23.8 19.5 29.1 19.5H163C168.2 19.5 172.5 23.8 172.5 29.1Z" fill="white"/>
<path fill-rule="evenodd" clip-rule="evenodd" d="M19.5 162.5V162.9C19.5 168.2 23.8 172.5 29.1 172.5H96V162.5H19.5Z" fill="#9ABEFF"/>
<path fill-rule="evenodd" clip-rule="evenodd" d="M96 172.5H162.9C168.2 172.5 172.5 168.2 172.5 162.9V162.5H96V172.5Z" fill="#F8C18C"/>
<path d="M76.8557 83.3221H58.5V88.2706H64.9287V108.699H70.4693V88.2706H76.8557V83.3221Z" fill="#9ABEFF"/>
<path d="M101.26 83.3221L93.1814 100.874L85.1877 83.3221H79.1396V108.699H84.7225V93.5574L91.5742 108.699H94.7886L101.683 93.5996V108.699H107.265V83.3221H101.26Z" fill="#9ABEFF"/>
<path d="M127.524 95.8412C129.428 94.8262 130.654 93.0498 130.654 90.3853C130.654 85.9021 127.271 83.3221 122.999 83.3221H112.256V108.699H123.972C128.201 108.699 131.5 106.246 131.5 101.762C131.5 98.6749 129.893 96.7717 127.524 95.8412ZM125.071 90.9774C125.071 92.4577 123.845 93.7265 122.322 93.7265H117.839V88.2706H122.322C123.845 88.2706 125.071 89.4548 125.071 90.9774ZM123.168 103.75H117.839V98.2943H123.168C124.733 98.2943 125.917 99.5631 125.917 101.043C125.917 102.566 124.733 103.75 123.168 103.75Z" fill="#9ABEFF"/>
<path d="M82.1635 80.2952C83.8335 80.2952 85.1872 78.9415 85.1872 77.2715C85.1872 75.6016 83.8335 74.2478 82.1635 74.2478C80.4936 74.2478 79.1398 75.6016 79.1398 77.2715C79.1398 78.9415 80.4936 80.2952 82.1635 80.2952Z" fill="#9ABEFF"/>
<path d="M104.283 80.2949C105.953 80.2949 107.306 78.9411 107.306 77.2712C107.306 75.6012 105.953 74.2475 104.283 74.2475C102.613 74.2475 101.259 75.6012 101.259 77.2712C101.259 78.9411 102.613 80.2949 104.283 80.2949Z" fill="#9ABEFF"/>
</g>
<defs>
<clipPath id="clip0">
<rect width="192" height="192" fill="white"/>
</clipPath>
</defs>
</svg>

<svg xmlns="http://www.w3.org/2000/svg" width="192" height="192" fill="none"><g clip-path="url(#a)"><path fill="#fff" d="M172.5 29.1v133.8c0 5.3-4.3 9.6-9.6 9.6H29.1c-5.3 0-9.6-4.3-9.6-9.6V29.1c0-5.3 4.3-9.6 9.6-9.6H163c5.2 0 9.5 4.3 9.5 9.6Z"/><path fill="#9ABEFF" fill-rule="evenodd" d="M19.5 162.5v.4c0 5.3 4.3 9.6 9.6 9.6H96v-10H19.5Z" clip-rule="evenodd"/><path fill="#F8C18C" fill-rule="evenodd" d="M96 172.5h66.9c5.3 0 9.6-4.3 9.6-9.6v-.4H96v10Z" clip-rule="evenodd"/><path fill="#9ABEFF" d="M76.856 83.322H58.5v4.949h6.429v20.428h5.54V88.271h6.387v-4.949ZM101.26 83.322l-8.079 17.552-7.993-17.552H79.14V108.7h5.582V93.557l6.852 15.142h3.215l6.894-15.1v15.1h5.582V83.322h-6.005ZM127.524 95.841c1.904-1.015 3.13-2.791 3.13-5.456 0-4.483-3.383-7.063-7.655-7.063h-10.743V108.7h11.716c4.229 0 7.528-2.453 7.528-6.937 0-3.087-1.607-4.99-3.976-5.92Zm-2.453-4.864c0 1.48-1.226 2.75-2.749 2.75h-4.483V88.27h4.483c1.523 0 2.749 1.184 2.749 2.706Zm-1.903 12.773h-5.329v-5.456h5.329a2.743 2.743 0 0 1 2.749 2.749c0 1.523-1.184 2.707-2.749 2.707ZM82.163 80.295a3.024 3.024 0 1 0 0-6.047 3.024 3.024 0 0 0 0 6.047ZM104.283 80.295a3.023 3.023 0 1 0 0-6.046 3.023 3.023 0 0 0 0 6.046Z"/></g><defs><clipPath id="a"><path fill="#fff" d="M0 0h192v192H0z"/></clipPath></defs></svg>
